img/cog.svg

<svg width="24" height="24" viewBox="0 0 24 24" fill="none" xmlns="http://www.w3.org/2000/svg">
<path d="M12 10C13.1046 10 14 10.8954 14 12C14 13.1046 13.1046 14 12 14C10.8954 14 10 13.1046 10 12C10 10.8954 10.8954 10 12 10Z" stroke="#686B6E" stroke-width="1.5" stroke-linecap="round" stroke-linejoin="round"/>
<path d="M6.90136 6.7469C5.96492 6.20624 4.76749 6.52709 4.22684 7.46353L4.1851 7.53583C3.64424 8.47263 3.96521 9.67051 4.902 10.2114L5.1448 10.3515C5.71742 10.6821 6 11.3388 6 12C6 12.6612 5.71742 13.3179 5.1448 13.6485L4.902 13.7886C3.96521 14.3295 3.64424 15.5274 4.1851 16.4642L4.22684 16.5365C4.7675 17.4729 5.96492 17.7938 6.90136 17.2531L7.14546 17.1122C7.71803 16.7816 8.42331 16.863 8.9953 17.1946C9.56711 17.526 10 18.1005 10 18.7614V19.0427C10 20.1237 10.8763 21 11.9573 21H12.0427C13.1237 21 14 20.1237 14 19.0427V18.7614C14 18.1005 14.4329 17.5261 15.0047 17.1946C15.5767 16.863 16.282 16.7816 16.8545 17.1122L17.0986 17.2531C18.0351 17.7938 19.2325 17.4729 19.7732 16.5365L19.8149 16.4642C20.3558 15.5274 20.0348 14.3295 19.098 13.7886L18.8552 13.6485C18.2826 13.3179 18 12.6612 18 12C18 11.3388 18.2826 10.6821 18.8552 10.3515L19.098 10.2114C20.0348 9.6705 20.3558 8.47262 19.8149 7.53581L19.7732 7.46353C19.2325 6.52709 18.0351 6.20623 17.0986 6.74689L16.8545 6.88783C16.282 7.2184 15.5767 7.13699 15.0047 6.80541C14.4329 6.47395 14 5.89952 14 5.23859V4.95728C14 3.8763 13.1237 3 12.0427 3L11.9573 3C10.8763 3 10 3.8763 10 4.95727V5.23858C10 5.89952 9.56711 6.47395 8.9953 6.80542C8.42331 7.13699 7.71803 7.2184 7.14546 6.88783L6.90136 6.7469Z" stroke="#686B6E" stroke-width="1.5" stroke-linecap="round" stroke-linejoin="round"/>
</svg>

<svg width="24" height="24" fill="none" xmlns="http://www.w3.org/2000/svg"><path d="M12 10a2 2 0 1 1 0 4 2 2 0 0 1 0-4Z" stroke="#686B6E" stroke-width="1.5" stroke-linecap="round" stroke-linejoin="round"/><path d="M6.901 6.747a1.958 1.958 0 0 0-2.674.717l-.042.072c-.54.937-.22 2.135.717 2.675l.243.14C5.717 10.682 6 11.34 6 12s-.283 1.318-.855 1.649l-.243.14a1.959 1.959 0 0 0-.717 2.675l.042.073a1.958 1.958 0 0 0 2.674.716l.244-.14c.573-.331 1.278-.25 1.85.082.572.331 1.005.905 1.005 1.566v.282c0 1.08.876 1.957 1.957 1.957h.086A1.957 1.957 0 0 0 14 19.043v-.282c0-.66.433-1.235 1.005-1.566.572-.332 1.277-.413 1.85-.083l.244.141c.936.54 2.134.22 2.674-.716l.042-.073c.54-.937.22-2.134-.717-2.675l-.243-.14C18.283 13.318 18 12.66 18 12s.283-1.318.855-1.649l.243-.14a1.959 1.959 0 0 0 .717-2.675l-.042-.072a1.958 1.958 0 0 0-2.674-.717l-.244.14c-.573.331-1.278.25-1.85-.082C14.433 6.474 14 5.9 14 5.24v-.282A1.957 1.957 0 0 0 12.043 3h-.086A1.957 1.957 0 0 0 10 4.957v.282c0 .66-.433 1.235-1.005 1.566-.572.332-1.277.413-1.85.083l-.244-.141Z" stroke="#686B6E" stroke-width="1.5" stroke-linecap="round" stroke-linejoin="round"/></svg>
